X: 1
T: Fair And Easy
M: 6/8
L: 1/8
R: jig
K: Amix
|: ABA Acd|e2d efg| G2F G2A|B2A Bcd |
 ABA Acd | e2d efg | efg edB| A3 A2z:|
|: g2f g2e |f2g a2z| g2f g2e |dBG GBd|
 g2f g2e|f2g a2z| efg edB| A3 A2z:|
